icons/op-preview-24.svg

<svg width="24" height="24" viewBox="0 0 24 24" fill="none" xmlns="http://www.w3.org/2000/svg">
<path d="M7.71269 15.4375V15.875C10.3318 20.2188 16.412 20.2188 19 15.875V15.4375C16.412 11.0938 10.3318 11.0938 7.71269 15.4375ZM13.3563 18.2812C11.922 18.2812 10.7684 17.0938 10.7684 15.6562C10.7684 14.2188 11.922 13.0625 13.3563 13.0625C14.8218 13.0625 15.9755 14.2188 15.9755 15.6562C15.9755 17.0938 14.8218 18.2812 13.3563 18.2812ZM14.6659 15.6562C14.6659 16.375 14.0735 16.9688 13.3563 16.9688C12.6392 16.9688 12.078 16.375 12.078 15.6562C12.078 14.9375 12.6392 14.3438 13.3563 14.3438C14.0735 14.3438 14.6659 14.9375 14.6659 15.6562ZM17.2539 7.71875L13.5746 4H5V20H8.95991V18.5625H6.4343V5.4375H12.9822L15.8196 8.3125V11.1562H17.2539V7.71875Z" fill="black"/>
</svg>

<svg xmlns="http://www.w3.org/2000/svg" width="24" height="24" viewBox="0 0 24 24"><path d="M7.713 15.438v.437c2.619 4.344 8.699 4.344 11.287 0v-.437c-2.588-4.344-8.668-4.344-11.287 0Zm5.643 2.843c-1.434 0-2.588-1.187-2.588-2.625a2.585 2.585 0 0 1 2.588-2.594 2.592 2.592 0 0 1 2.62 2.594 2.618 2.618 0 0 1-2.62 2.625Zm1.31-2.625a1.32 1.32 0 0 1-1.31 1.313c-.717 0-1.278-.594-1.278-1.313 0-.718.561-1.312 1.278-1.312s1.31.594 1.31 1.312Zm2.588-7.937L13.575 4H5v16h3.96v-1.438H6.434V5.438h6.548l2.838 2.874v2.844h1.434V7.719Z"/></svg>
